img/open-almaty-logo.svg

<svg width="107" height="51" viewBox="0 0 107 51" fill="none" xmlns="http://www.w3.org/2000/svg">
<g clip-path="url(#clip0_2042_270)">
<mask id="mask0_2042_270" style="mask-type:luminance" maskUnits="userSpaceOnUse" x="0" y="0" width="107" height="51">
<path d="M107 0H0V51H107V0Z" fill="white"/>
</mask>
<g mask="url(#mask0_2042_270)">
<path fill-rule="evenodd" clip-rule="evenodd" d="M32.8964 29.7071L28.5757 37.514H37.294L32.8964 29.7071Z" fill="#DA272A"/>
<path fill-rule="evenodd" clip-rule="evenodd" d="M32.5158 13.6294L28.4223 0L22.9639 6.02052L32.5158 13.6294Z" fill="#1EA243"/>
<path fill-rule="evenodd" clip-rule="evenodd" d="M32.517 13.6294L28.4235 0L27.0635 5.73682L32.517 13.6294Z" fill="#69B037"/>
<path fill-rule="evenodd" clip-rule="evenodd" d="M27.0609 5.73682L28.4207 0L22.9639 6.02052L27.0609 5.73682Z" fill="#42A93C"/>
<path fill-rule="evenodd" clip-rule="evenodd" d="M32.8965 29.7071L33.6491 35.9241L37.2942 37.514L32.8965 29.7071Z" fill="#E64B4E"/>
<path fill-rule="evenodd" clip-rule="evenodd" d="M33.6489 35.9238L28.5757 37.5136H37.294L33.6489 35.9238Z" fill="#C92628"/>
<path fill-rule="evenodd" clip-rule="evenodd" d="M25.502 18.2928L26.4744 26.1045L31.6162 16.9307C30.1687 15.9216 28.5521 15.0891 26.8097 14.4697L25.502 18.2928Z" fill="#DB2A28"/>
<path fill-rule="evenodd" clip-rule="evenodd" d="M19.4761 13.2188C13.2281 13.2188 7.66951 15.7869 4.10596 19.7776L11.0857 20.5409L16.5809 13.4055L25.505 18.2912L26.813 14.4666C24.5482 13.662 22.0711 13.2188 19.4761 13.2188Z" fill="#CC2529"/>
<path fill-rule="evenodd" clip-rule="evenodd" d="M11.0799 20.541L4.09883 19.7783C2.0451 22.0805 0.653543 24.8564 0.178223 27.8864L4.75752 25.4081L11.0799 20.541Z" fill="#B92829"/>
<path fill-rule="evenodd" clip-rule="evenodd" d="M4.76063 25.4092L0.181535 27.8877C0.0621761 28.6477 0 29.4246 0 30.2145C0 31.0842 0.0749181 31.9405 0.219684 32.7753L4.76063 32.8465V25.4092Z" fill="#A22828"/>
<path fill-rule="evenodd" clip-rule="evenodd" d="M4.76214 32.8454L0.221191 32.7744C0.87674 36.5555 2.95985 39.9272 5.97427 42.4595L7.48178 41.0553L4.76214 32.8454Z" fill="#8E2A27"/>
<path fill-rule="evenodd" clip-rule="evenodd" d="M7.4821 41.0566L5.97461 42.4615C8.42609 44.5191 11.4945 46.0224 14.9128 46.7386L7.4821 41.0566Z" fill="#812926"/>
<path fill-rule="evenodd" clip-rule="evenodd" d="M7.48047 41.0581L14.9111 46.7398L15.8085 38.8606L14.052 30.9814L7.48047 41.0581Z" fill="#B92B29"/>
<path fill-rule="evenodd" clip-rule="evenodd" d="M7.47693 41.058L14.0485 30.9814L4.75732 32.8482L7.47693 41.058Z" fill="#AA2927"/>
<path fill-rule="evenodd" clip-rule="evenodd" d="M14.0491 30.9793L4.75732 25.4092V32.8465L14.0491 30.9793Z" fill="#B12929"/>
<path fill-rule="evenodd" clip-rule="evenodd" d="M19.6905 38.2119L15.8091 38.8578L14.9116 46.7388L19.6905 38.2119Z" fill="#C92628"/>
<path fill-rule="evenodd" clip-rule="evenodd" d="M15.8075 38.8609L19.6889 38.2144L21.3334 35.2792L14.0513 30.9814L15.8075 38.8609Z" fill="#DA272A"/>
<path fill-rule="evenodd" clip-rule="evenodd" d="M26.4741 26.1035L14.0513 30.9798L21.3334 35.2776L26.4741 26.1035Z" fill="#DF4647"/>
<path fill-rule="evenodd" clip-rule="evenodd" d="M11.0825 20.5429L14.0514 30.9801L26.4744 26.104L11.0825 20.5429Z" fill="#D83031"/>
<path fill-rule="evenodd" clip-rule="evenodd" d="M4.75732 25.4097L14.0485 30.9801L11.0802 20.5429L4.75732 25.4097Z" fill="#CC2529"/>
<path fill-rule="evenodd" clip-rule="evenodd" d="M11.0825 20.5438L26.4744 26.1046L25.5019 18.2929L11.0825 20.5438Z" fill="#DE393A"/>
<path fill-rule="evenodd" clip-rule="evenodd" d="M11.0762 20.5425L25.4956 18.2916L16.5715 13.4062L11.0762 20.5425Z" fill="#D32328"/>
<path d="M48.1749 14.2472C50.0765 14.2472 51.7054 14.8942 53.0622 16.1925C54.4189 17.4868 55.0974 19.0006 55.0974 20.7303C55.0974 22.5108 54.4284 24.042 53.0899 25.3191C51.7517 26.6005 50.1136 27.2389 48.1749 27.2389C46.2555 27.2389 44.6266 26.6005 43.2883 25.3191C41.9498 24.042 41.2808 22.5108 41.2808 20.7303C41.2808 18.9838 41.9498 17.4654 43.2883 16.1797C44.6266 14.89 46.2555 14.2472 48.1749 14.2472ZM48.1749 16.3531C46.957 16.3531 45.9324 16.7676 45.1016 17.601C44.2711 18.4296 43.8555 19.4659 43.8555 20.7051C43.8555 21.9271 44.2711 22.9633 45.1016 23.8093C45.9324 24.6592 46.957 25.0824 48.1749 25.0824C49.3936 25.0824 50.4271 24.6679 51.2763 23.8348C52.1252 23.0058 52.5499 21.9612 52.5499 20.7051C52.5499 19.4659 52.1252 18.4296 51.2763 17.601C50.4271 16.7676 49.3936 16.3531 48.1749 16.3531ZM57.3956 32.6694V21.6736C57.3956 20.6416 57.4323 19.8547 57.5064 19.3137C57.5803 18.7723 57.7923 18.2016 58.1433 17.5924C58.734 16.5267 59.5691 15.6937 60.649 15.0843C61.7288 14.4755 62.9332 14.1709 64.2623 14.1709C66.2374 14.1709 67.8758 14.7841 69.1769 16.0107C70.4785 17.2371 71.129 18.7978 71.129 20.6925C71.129 22.5025 70.4785 24.0291 69.1769 25.2724C67.8758 26.5159 66.2749 27.1374 64.3732 27.1374C63.8195 27.1374 63.3207 27.0994 62.8781 27.0234C62.4347 26.9473 62.0197 26.8416 61.632 26.7064L60.6627 23.8896C61.8073 24.651 62.9608 25.0317 64.1238 25.0317C65.4348 25.0317 66.5142 24.634 67.3634 23.8389C68.213 23.0439 68.6374 22.0035 68.6374 20.7177C68.6374 19.3815 68.2267 18.3114 67.405 17.5077C66.5836 16.7043 65.5175 16.3026 64.2071 16.3026C62.9332 16.3026 61.8857 16.7043 61.0643 17.5077C60.2427 18.3072 59.8324 19.3687 59.8324 20.6839V32.6694H57.3956ZM72.8184 20.7051C72.8184 18.9753 73.4878 17.4654 74.8257 16.1797C76.1642 14.89 77.7931 14.2472 79.7125 14.2472C81.6141 14.2472 83.2427 14.8942 84.5999 16.1884C85.9566 17.4825 86.6348 18.9838 86.6348 20.6925L86.5517 21.6565H75.4762C75.6978 22.68 76.1963 23.5047 76.9714 24.1348C77.7467 24.7651 78.6604 25.0824 79.7125 25.0824C80.5249 25.0824 81.2311 24.9046 81.8309 24.5535C82.4308 24.2023 82.9433 23.7373 83.3675 23.1538L85.1671 24.7104C84.632 25.3911 83.9306 25.962 83.063 26.4228C82.0292 26.9683 80.9126 27.2389 79.7125 27.2389C77.7744 27.2389 76.1407 26.6005 74.812 25.3191C73.4827 24.042 72.8184 22.5025 72.8184 20.7051ZM79.7125 16.3531C78.6976 16.3531 77.7931 16.6662 76.9992 17.292C76.2054 17.9179 75.6978 18.73 75.4762 19.728H83.9769C83.7738 18.73 83.275 17.9179 82.4817 17.292C81.6877 16.6662 80.7649 16.3531 79.7125 16.3531ZM88.9611 26.9856V20.1595C88.9611 18.3157 89.4962 16.8691 90.567 15.8205C91.6375 14.7715 93.0401 14.2472 94.7754 14.2472C96.5294 14.2472 97.9319 14.763 98.9841 15.795C100.036 16.827 100.562 18.2817 100.562 20.1595V26.9856H98.1535V19.7535C98.1535 18.7386 97.8397 17.9266 97.212 17.3175C96.5842 16.7085 95.7724 16.4041 94.7754 16.4041C93.7787 16.4041 92.9618 16.7128 92.325 17.3301C91.6878 17.9475 91.3698 18.7555 91.3698 19.7535V26.9856H88.9611Z" fill="#1EA243"/>
<path d="M48.9883 46.5861V31.5323H52.1309V46.5861H48.9883ZM68.527 35.4431C69.7642 35.4431 70.7035 35.7656 71.3489 36.4136C71.9941 37.062 72.3148 38.085 72.3148 39.4902V46.5861H69.1721V39.5393C69.1721 38.9366 69.0424 38.4705 68.783 38.1447C68.5192 37.8153 68.1221 37.6508 67.5877 37.6508C67.1374 37.6508 66.7474 37.7699 66.4118 38.0045C66.0757 38.2391 65.8159 38.5827 65.629 39.0278C65.4454 39.4728 65.3505 40.0053 65.3505 40.629V46.5861H62.2078V39.6936C62.2078 39.0522 62.0933 38.5476 61.8601 38.1903C61.6308 37.8291 61.2303 37.6508 60.665 37.6508C59.1453 37.6508 58.3854 38.6423 58.3854 40.629V46.5861H55.2427V35.6952H58.1793V37.0794H58.2024C58.6568 36.5328 59.1722 36.1229 59.7448 35.8493C60.3175 35.5797 60.9897 35.4431 61.7572 35.4431C63.246 35.4431 64.3305 36.018 65.0067 37.1636C65.5067 36.5786 66.0491 36.1473 66.6332 35.8671C67.2173 35.5833 67.8511 35.4431 68.527 35.4431ZM85.6676 46.5861H82.5672C82.4107 46.2707 82.2845 45.8711 82.1893 45.3843C81.135 46.3548 79.9058 46.8383 78.4927 46.8383C77.7179 46.8383 77.0344 46.7016 76.4462 46.4283C75.8544 46.155 75.4003 45.7695 75.0793 45.2718C74.7586 44.778 74.5981 44.2104 74.5981 43.5762C74.5981 42.6089 74.9419 41.8451 75.6292 41.2775C76.3166 40.7099 77.3781 40.3206 78.8134 40.1175C80.2457 39.9107 81.2533 39.7146 81.8378 39.5219V39.3152C81.8378 38.6774 81.6699 38.243 81.3301 38.0045C80.9899 37.7699 80.4862 37.6508 79.8221 37.6508C79.2987 37.6508 78.8633 37.7592 78.5121 37.98C78.1609 38.1975 77.8975 38.5443 77.7179 39.0174L74.8503 38.6178C75.1633 37.5207 75.7476 36.7187 76.5954 36.2072C77.4471 35.699 78.5848 35.4431 80.0125 35.4431C81.1659 35.4431 82.1089 35.5797 82.8384 35.8493C83.5639 36.1196 84.106 36.5505 84.4536 37.1391C84.8048 37.7276 84.9804 38.495 84.9804 39.4484V43.895C84.9804 44.4171 85.0223 44.8515 85.1024 45.1983C85.1828 45.5487 85.3735 46.0115 85.6676 46.5861ZM79.4246 41.9118C78.3023 42.1184 77.7408 42.6161 77.7408 43.4115C77.7408 43.8563 77.8781 44.1963 78.1566 44.4345C78.4317 44.6763 78.8288 44.7954 79.3483 44.7954C79.8639 44.7954 80.3374 44.6763 80.7723 44.4345C81.0703 44.2736 81.2919 44.0982 81.4409 43.9194C81.586 43.7373 81.6889 43.4921 81.7462 43.1837C81.8075 42.8787 81.8378 42.4478 81.8378 41.8941V41.3684C81.2842 41.5541 80.4785 41.7362 79.4246 41.9118ZM93.5259 35.6952V37.9835H91.3038V43.2887C91.3038 43.6007 91.3305 43.8389 91.3762 44C91.4257 44.1612 91.5135 44.2736 91.6358 44.34C91.7579 44.4029 91.9411 44.4345 92.1895 44.4345C92.5788 44.4345 92.9914 44.382 93.4343 44.2736L93.8238 46.4985C93.48 46.6037 93.102 46.6839 92.682 46.7471C92.2658 46.8068 91.8423 46.8383 91.418 46.8383C90.582 46.8383 89.9292 46.7333 89.4593 46.5192C88.9896 46.3091 88.6538 45.9623 88.459 45.4788C88.2603 44.9952 88.1608 44.333 88.1608 43.485V37.9835H86.4886V35.6952H88.1608V33.7014L91.3038 31.6586V35.6952H93.5259ZM100.953 43.436H100.995C101.227 42.6824 101.384 42.1919 101.464 41.9676L103.748 35.6952H107.001L102.438 46.9047C101.735 48.6078 101.06 49.715 100.411 50.2196C99.7461 50.7417 98.8141 51.0009 97.6152 51.0009C97.0692 51.0009 96.3474 50.91 95.4541 50.724L95.9809 48.5168C96.4429 48.6464 96.8133 48.7128 97.0884 48.7128C97.4701 48.7128 97.7797 48.657 98.0237 48.5481C98.2643 48.4398 98.4858 48.233 98.6885 47.9351C98.8906 47.637 99.1006 47.1957 99.326 46.6071L94.7896 35.6952H98.1343L100.449 41.8976C100.59 42.2654 100.758 42.7769 100.953 43.436Z" fill="#DA272A"/>
</g>
</g>
<defs>
<clipPath id="clip0_2042_270">
<rect width="107" height="51" fill="white"/>
</clipPath>
</defs>
</svg>

<svg width="107" height="51" fill="none" xmlns="http://www.w3.org/2000/svg"><g clip-path="url(#a)"><mask id="b" style="mask-type:luminance" maskUnits="userSpaceOnUse" x="0" y="0" width="107" height="51"><path d="M107 0H0v51h107V0z" fill="#fff"/></mask><g mask="url(#b)"><path fill-rule="evenodd" clip-rule="evenodd" d="m32.896 29.707-4.32 7.807h8.718l-4.398-7.807z" fill="#DA272A"/><path fill-rule="evenodd" clip-rule="evenodd" d="M32.516 13.63 28.422 0l-5.458 6.02 9.552 7.61z" fill="#1EA243"/><path fill-rule="evenodd" clip-rule="evenodd" d="M32.517 13.63 28.423 0l-1.36 5.737 5.454 7.892z" fill="#69B037"/><path fill-rule="evenodd" clip-rule="evenodd" d="M27.06 5.737 28.42 0l-5.456 6.02 4.097-.283z" fill="#42A93C"/><path fill-rule="evenodd" clip-rule="evenodd" d="m32.897 29.707.752 6.217 3.645 1.59-4.397-7.807z" fill="#E64B4E"/><path fill-rule="evenodd" clip-rule="evenodd" d="m33.649 35.924-5.073 1.59h8.718l-3.645-1.59z" fill="#C92628"/><path fill-rule="evenodd" clip-rule="evenodd" d="m25.502 18.293.972 7.812 5.142-9.174a20.283 20.283 0 0 0-4.806-2.461l-1.308 3.823z" fill="#DB2A28"/><path fill-rule="evenodd" clip-rule="evenodd" d="M19.476 13.219c-6.248 0-11.806 2.568-15.37 6.559l6.98.763 5.495-7.136 8.924 4.886 1.308-3.824a21.908 21.908 0 0 0-7.337-1.248z" fill="#CC2529"/><path fill-rule="evenodd" clip-rule="evenodd" d="m11.08 20.541-6.981-.763C2.045 22.081.654 24.856.179 27.886l4.579-2.478 6.322-4.867z" fill="#B92829"/><path fill-rule="evenodd" clip-rule="evenodd" d="M4.76 25.41.183 27.887a14.988 14.988 0 0 0 .038 4.887l4.54.072v-7.438z" fill="#A22828"/><path fill-rule="evenodd" clip-rule="evenodd" d="m4.762 32.845-4.54-.07c.655 3.78 2.738 7.152 5.752 9.684l1.508-1.404-2.72-8.21z" fill="#8E2A27"/><path fill-rule="evenodd" clip-rule="evenodd" d="M7.482 41.057 5.975 42.46c2.451 2.058 5.52 3.561 8.938 4.278l-7.43-5.682z" fill="#812926"/><path fill-rule="evenodd" clip-rule="evenodd" d="m7.48 41.058 7.431 5.682.898-7.88-1.757-7.879L7.48 41.058z" fill="#B92B29"/><path fill-rule="evenodd" clip-rule="evenodd" d="m7.477 41.058 6.572-10.077-9.292 1.867 2.72 8.21z" fill="#AA2927"/><path fill-rule="evenodd" clip-rule="evenodd" d="m14.05 30.98-9.293-5.57v7.436l9.292-1.867z" fill="#B12929"/><path fill-rule="evenodd" clip-rule="evenodd" d="m19.69 38.212-3.88.646-.898 7.88 4.778-8.526z" fill="#C92628"/><path fill-rule="evenodd" clip-rule="evenodd" d="m15.807 38.86 3.882-.646 1.644-2.935-7.282-4.298 1.756 7.88z" fill="#DA272A"/><path fill-rule="evenodd" clip-rule="evenodd" d="M26.474 26.104 14.051 30.98l7.282 4.298 5.141-9.174z" fill="#DF4647"/><path fill-rule="evenodd" clip-rule="evenodd" d="m11.082 20.543 2.97 10.437 12.422-4.876-15.392-5.561z" fill="#D83031"/><path fill-rule="evenodd" clip-rule="evenodd" d="m4.757 25.41 9.292 5.57-2.969-10.437-6.323 4.867z" fill="#CC2529"/><path fill-rule="evenodd" clip-rule="evenodd" d="m11.082 20.544 15.392 5.56-.972-7.811-14.42 2.25z" fill="#DE393A"/><path fill-rule="evenodd" clip-rule="evenodd" d="m11.076 20.543 14.42-2.251-8.924-4.886-5.496 7.136z" fill="#D32328"/><path d="M48.175 14.247c1.902 0 3.53.647 4.887 1.945 1.357 1.295 2.035 2.809 2.035 4.538 0 1.78-.669 3.312-2.007 4.59-1.338 1.28-2.976 1.919-4.915 1.919-1.92 0-3.548-.639-4.887-1.92-1.338-1.277-2.007-2.808-2.007-4.589 0-1.746.669-3.265 2.007-4.55 1.339-1.29 2.968-1.933 4.887-1.933zm0 2.106c-1.218 0-2.243.415-3.073 1.248-.83.829-1.246 1.865-1.246 3.104 0 1.222.415 2.258 1.246 3.104.83.85 1.855 1.273 3.073 1.273 1.219 0 2.252-.414 3.101-1.247.85-.83 1.274-1.874 1.274-3.13 0-1.24-.425-2.275-1.274-3.104-.849-.833-1.882-1.248-3.101-1.248zm9.22 16.316V21.674c0-1.032.037-1.82.111-2.36.074-.542.286-1.112.637-1.722a6.392 6.392 0 0 1 2.506-2.508c1.08-.608 2.284-.913 3.613-.913 1.975 0 3.614.613 4.915 1.84 1.301 1.226 1.952 2.787 1.952 4.681 0 1.81-.65 3.337-1.952 4.58-1.301 1.244-2.902 1.865-4.804 1.865a8.89 8.89 0 0 1-1.495-.114 7.77 7.77 0 0 1-1.246-.317l-.97-2.816c1.145.761 2.299 1.142 3.462 1.142 1.31 0 2.39-.398 3.24-1.193.849-.795 1.273-1.835 1.273-3.121 0-1.337-.41-2.407-1.232-3.21-.821-.804-1.888-1.205-3.198-1.205-1.274 0-2.321.401-3.143 1.205-.821.8-1.232 1.86-1.232 3.176v11.985h-2.436zm15.423-11.964c0-1.73.67-3.24 2.008-4.525 1.338-1.29 2.967-1.933 4.887-1.933 1.901 0 3.53.647 4.887 1.941 1.357 1.295 2.035 2.796 2.035 4.505l-.083.963H75.476c.222 1.024.72 1.849 1.495 2.479.776.63 1.69.947 2.742.947.812 0 1.518-.177 2.118-.529a5.019 5.019 0 0 0 1.537-1.4l1.8 1.557c-.536.681-1.237 1.252-2.105 1.713a7.069 7.069 0 0 1-3.35.816c-1.939 0-3.572-.639-4.901-1.92-1.33-1.277-1.994-2.816-1.994-4.614zm6.895-4.352c-1.015 0-1.92.313-2.714.939a4.16 4.16 0 0 0-1.523 2.436h8.5a4.034 4.034 0 0 0-1.494-2.436c-.794-.626-1.717-.939-2.77-.939zm9.248 10.633V20.16c0-1.844.535-3.29 1.606-4.34 1.07-1.049 2.473-1.573 4.208-1.573 1.754 0 3.157.516 4.21 1.548 1.051 1.032 1.577 2.487 1.577 4.365v6.826h-2.409v-7.233c0-1.014-.313-1.826-.941-2.436-.628-.608-1.44-.913-2.437-.913-.996 0-1.813.309-2.45.926-.637.618-.955 1.426-.955 2.424v7.232H88.96z" fill="#1EA243"/><path d="M48.988 46.586V31.532h3.143v15.054h-3.143zm19.539-11.143c1.237 0 2.177.323 2.822.97.645.649.966 1.672.966 3.077v7.096h-3.143V39.54c0-.602-.13-1.069-.389-1.394-.264-.33-.66-.494-1.195-.494-.45 0-.84.119-1.176.353-.336.235-.596.579-.783 1.024-.184.445-.279.977-.279 1.601v5.957h-3.142v-6.892c0-.642-.115-1.146-.348-1.504-.23-.36-.63-.54-1.195-.54-1.52 0-2.28.992-2.28 2.979v5.957h-3.142v-10.89h2.936v1.383h.023c.455-.546.97-.956 1.543-1.23.573-.27 1.245-.406 2.012-.406 1.489 0 2.574.575 3.25 1.72.5-.584 1.042-1.016 1.626-1.296a4.282 4.282 0 0 1 1.894-.424zm17.14 11.143h-3.1c-.156-.315-.282-.715-.378-1.202-1.054.97-2.283 1.454-3.696 1.454-.775 0-1.459-.136-2.047-.41-.592-.273-1.046-.658-1.367-1.156a3.05 3.05 0 0 1-.48-1.696c0-.967.343-1.73 1.03-2.298.688-.568 1.75-.957 3.184-1.16 1.433-.207 2.44-.403 3.025-.596v-.207c0-.638-.168-1.072-.508-1.31-.34-.235-.844-.354-1.508-.354-.523 0-.959.108-1.31.329-.351.218-.615.564-.794 1.037l-2.868-.4c.313-1.096.898-1.898 1.745-2.41.852-.508 1.99-.764 3.418-.764 1.153 0 2.096.137 2.825.406.726.27 1.268.702 1.616 1.29.35.589.526 1.356.526 2.31v4.446c0 .522.042.956.122 1.303.08.35.272.813.566 1.388zm-6.242-4.674c-1.123.206-1.684.704-1.684 1.5 0 .444.137.784.416 1.023.275.241.672.36 1.191.36.516 0 .99-.119 1.424-.36.298-.161.52-.337.669-.516.145-.182.248-.427.305-.735.062-.305.092-.736.092-1.29v-.526c-.554.186-1.36.368-2.413.544zm14.1-6.217v2.288h-2.221v5.306c0 .312.026.55.072.711.05.161.137.274.26.34.122.063.305.094.553.094.39 0 .802-.052 1.245-.16l.39 2.224a7.947 7.947 0 0 1-1.142.25c-.416.059-.84.09-1.264.09-.836 0-1.489-.105-1.959-.319a1.864 1.864 0 0 1-1-1.04c-.199-.484-.298-1.146-.298-1.994v-5.502h-1.672v-2.288h1.672v-1.994l3.143-2.042v4.036h2.222zm7.428 7.741h.042c.232-.754.389-1.244.469-1.468l2.284-6.273h3.253l-4.563 11.21c-.703 1.703-1.378 2.81-2.027 3.315-.665.522-1.597.78-2.796.78-.546 0-1.268-.09-2.16-.276l.526-2.207c.462.13.832.196 1.107.196.382 0 .692-.056.936-.165.24-.108.462-.315.665-.613.202-.298.412-.74.637-1.328L94.79 35.695h3.344l2.315 6.203c.141.367.309.879.504 1.538z" fill="#DA272A"/></g></g><defs><clipPath id="a"><path fill="#fff" d="M0 0h107v51H0z"/></clipPath></defs></svg>
